X:169 
T:Pride of Kildare (reel), The
F:file ID: cre.5/169pride_k
B:CRE5.178 (MÃÂÃÂÃÂÃÂ³rtas Chill Dara)
N:Kind of a strange little tune that sounds like it should finish
on |e2| instead of |g2|. I have it here both ways so you can make up
your own mind!
M:4/4
Q:180
R:reel
K:G
fe|dfag fB~B2|fBaB fB~B2|dfeg fB~B2|dfaf g2:|
fe|defg a2fd|d2ba a2fd|eB~B2 a2fd|d2bf g2:|

%%%

